!!!OTL: Der Wildsch&uuml;tz (231)
!!!id: T0417
**kern
*clefG2
*k[]
*G:
{4d
=1
4.g
8a
4b
=2
4a
4g
4a
=3
4b
4g}
=4
{8g
8a
=5
4.b
8a
4b
=6
4cc
4b
4cc
=7
4.dd
8ee
8dd
8cc
=8
4b}
4r
=9
{8b
8cc
=10
4dd
4dd
8dd
8cc
=11
4.b
8a}
=12
{4b
=13
4cc
4b
8cc
8a
=14
4a
4g}
=15
{4a
=16
4b
4g
8b
8dd
=17
2dd}
=18
{8b
8dd
=19
4dd
8b
8g
4a
=20
4g}
4r
==
*-
!!!minrhy: 8
!!!meters: 3/4 ]  ZZ[6
!!!cut1: Der Wildsch&uuml;tz (231)
!!!cut2: Melodie II, S. 499
!!!reg: Luxemburg
!!!trd: Singendes Volk, Esch-Alzette, 1937 posth.
!!!rhy1: X_  X_.XX_  X_X_X_  X_X_
!!!rhy2: XX  X_.XX_  X_X_X_  X_.XXX  X_0_
!!!key: T0417  08  G 3/4 ]  ZZ[6
!!!mod: SECHSTONSKALA DUR ?]  AMBITUS[9
!!!kad: 132151
!!!akz: 123_3453_53_42_35_51_
!!!fot: 'a__b__bs"bs"bs"c__
!!!for: 'a__b__c__d__cw_e__
!!!fok: '^a_^a_^d_\__/__^d_
!! PHRAS[AUFTAKTIG]
!!!fkt: J&auml;gerlied
!!!bem: StraPen, fff Witry, 17.1.1933
!! THILL; Mathias
!! PR[40] 2K[2] 2G[11] 3K[11] 3G[0] 4A[0] 4Ü[0] 5A[0] 6K[0] 6G[2]
!! 7K[2] 7G[0] 8A[0] MEHR[0] SI[28] ABS[47] SR[13] SP[15]
!! ST[12] 2k[11] 2g[11] 3k[4] 3g[4] 4d[0] 4ü[0] 5d[2] 6k[0] 6g[0]
!! 7k[0] 7g[0] 8d[0] mehr[0] si[32] dm[-4] sr[21] sp[11]
!! 1F[12] 2F[48] 3F[31] 4F[0] LF[0] 2P[4] 3P[6] 4P[0] TRI[0] DF[5] AB[52]
!! TF[0] U3K[0] U3[0] U4[0] U4Ü[0] U5[6] U6K[0] U6[0] U7K[0] U7[2]
!! N1[8] N2K[0] N2[15] N3K[0] N3[35] N4[21] N4Ü[0] N5[13] N6K[0] N6[0]
!!!n7k: 0] N7[0] O1[0] O2K[0] O2[0] O3K[0] O3[0] HÖ[0
!!!RNB: symbol: &auml;      = a umlaut  (UTF-8: Å„)
!!!RNB: symbol: &uuml;  = u umlaut (UTF-8: Ã¼)
